assets/platform_icons/dzen.svg

<svg width="44" height="45" viewBox="0 0 44 45" fill="none" xmlns="http://www.w3.org/2000/svg">
<path d="M43.6078 24.1587C46.2157 13.5765 35.3302 2.87324 25.427 0.992226C19.9813 -0.0405992 14.3174 0.940292 9.67598 3.98107C5.68941 6.5891 1.61092 11.2224 1.10542 16.1269C1.09393 16.2365 1.12841 16.3231 1.17437 16.3981C-1.96779 24.4933 1.45583 34.6716 8.34329 39.8126C15.1733 44.9075 26.4035 46.6904 33.6643 41.3705C34.279 40.9205 33.7677 40.0261 33.0669 40.355C32.8027 40.4762 32.5384 40.5973 32.2799 40.7185C32.1478 40.4877 31.8721 40.3377 31.5274 40.505C26.6907 42.8072 19.9756 41.6417 15.1963 39.9338C14.6563 39.7434 14.2887 40.6031 14.8057 40.857C17.3504 42.0975 20.1192 42.8245 22.9569 42.9746C24.1402 43.038 25.3293 42.9976 26.5126 42.8707C24.7089 43.3265 22.8477 43.5343 20.843 43.3554C16.7702 42.9861 13.1743 41.4628 9.8081 39.201C5.86174 36.5526 3.16765 33.3272 1.89241 28.7112C0.783752 24.7126 0.726294 20.5005 1.94984 16.5423C2.00154 16.5019 2.05324 16.4558 2.08196 16.3923C2.2945 15.9884 2.5013 15.5903 2.70809 15.1979C1.49604 18.331 1.13989 21.8045 1.6856 25.1165C2.71384 31.4 6.24086 35.5486 11.428 38.9586C12.0484 39.3683 12.6745 38.3182 12.0139 37.9662C7.40697 35.514 3.75356 29.9344 2.97808 24.8338C2.12217 19.2023 4.16141 13.917 7.49887 9.4337C7.78608 9.05288 7.18293 8.63167 6.8555 8.93747C6.30979 9.451 5.8043 10.0049 5.33326 10.5877C6.09726 9.4337 6.95315 8.34894 7.98139 7.3392C7.74587 7.73733 8.125 8.33741 8.59604 8.0316C9.80809 7.25265 10.9799 6.42178 12.2379 5.7063C13.1341 5.19854 14.0876 4.79464 15.0067 4.32727C15.1561 4.37343 15.3284 4.38498 15.5295 4.33305C22.2044 2.6309 28.8506 3.36369 34.0492 8.2624C34.2502 8.45281 34.4972 8.36626 34.6236 8.19316C34.5777 8.4355 34.7098 8.72399 35.0315 8.72399C35.5944 8.72399 35.5944 7.85272 35.0315 7.85272C34.8706 7.85272 34.7615 7.92197 34.6926 8.02583C34.704 7.92774 34.6811 7.82388 34.5892 7.72579C32.8544 5.88517 30.6658 4.35035 28.2589 3.27713C35.29 5.86208 41.1377 12.186 41.9821 19.485C41.4594 17.1539 40.4886 14.8979 39.0697 12.8611C38.7079 12.3475 37.9094 12.7918 38.2138 13.3573C40.1037 16.8308 40.9941 20.6275 41.1205 24.5626C41.2526 28.6708 39.6614 32.1789 37.4843 35.5659C37.2603 35.9121 37.7773 36.3333 38.0587 36.0448C38.1909 36.1141 38.3517 36.1141 38.4896 35.9871C41.6317 33.0444 43.9294 28.6362 43.6193 24.2221C43.6193 24.1991 43.6078 24.1817 43.6078 24.1587Z" fill="black"/>
<path d="M23.0452 10.6407C22.9769 10.6413 22.9093 10.6554 22.8464 10.6821C22.7835 10.7088 22.7265 10.7476 22.6787 10.7962C22.6308 10.8449 22.5931 10.9025 22.5677 10.9657C22.5422 11.0288 22.5295 11.0964 22.5303 11.1645C22.5755 14.9727 22.799 17.6543 24.3645 19.4496C25.93 21.2449 28.673 21.9234 33.3843 21.9747C33.457 21.9756 33.5291 21.9612 33.596 21.9326C33.6628 21.904 33.7228 21.8617 33.7722 21.8085C33.8216 21.7553 33.8592 21.6924 33.8827 21.6238C33.9061 21.5553 33.9149 21.4826 33.9083 21.4104C33.3882 15.7066 28.8256 11.1622 23.097 10.6427C23.0798 10.6411 23.0625 10.6405 23.0452 10.6407ZM20.9084 10.6437C20.8951 10.6439 20.8819 10.6445 20.8687 10.6457C15.1564 11.1804 10.6105 15.7179 10.0919 21.4104C10.0854 21.4826 10.0942 21.5553 10.1176 21.6238C10.141 21.6924 10.1787 21.7553 10.2281 21.8085C10.2775 21.8617 10.3375 21.904 10.4043 21.9326C10.4712 21.9612 10.5433 21.9756 10.616 21.9747C15.3135 21.9208 18.0492 21.241 19.6094 19.4456C21.1695 17.6502 21.391 14.9709 21.4365 11.1675C21.4373 11.0983 21.4242 11.0297 21.3979 10.9656C21.3716 10.9016 21.3327 10.8434 21.2835 10.7946C21.2343 10.7458 21.1757 10.7072 21.1113 10.6813C21.0468 10.6554 20.9778 10.6426 20.9084 10.6437ZM10.616 23.0244C10.5433 23.0235 10.4712 23.0379 10.4043 23.0665C10.3375 23.0952 10.2775 23.1374 10.2281 23.1906C10.1787 23.2438 10.141 23.3067 10.1176 23.3753C10.0942 23.4438 10.0854 23.5165 10.0919 23.5887C10.611 29.2816 15.1563 33.8192 20.8687 34.3534C20.9413 34.36 21.0144 34.3515 21.0834 34.3282C21.1524 34.3049 21.2157 34.2674 21.2692 34.2183C21.3227 34.1691 21.3653 34.1092 21.3941 34.0426C21.4229 33.976 21.4373 33.9041 21.4365 33.8316C21.391 30.0282 21.1695 27.349 19.6094 25.5535C18.0492 23.7581 15.3135 23.078 10.616 23.0244ZM33.3843 23.0244C28.673 23.0757 25.9299 23.7542 24.3645 25.5495C22.7991 27.3448 22.5758 30.0264 22.5303 33.8346C22.5294 33.907 22.5439 33.9788 22.5726 34.0454C22.6014 34.1119 22.6438 34.1717 22.6972 34.2209C22.7506 34.2701 22.8138 34.3075 22.8827 34.3309C22.9516 34.3542 23.0246 34.3629 23.097 34.3564C28.8251 33.8369 33.3877 29.2935 33.9083 23.5897C33.915 23.5175 33.9064 23.4446 33.883 23.376C33.8596 23.3073 33.822 23.2442 33.7726 23.1909C33.7232 23.1376 33.6631 23.0953 33.5962 23.0666C33.5293 23.0379 33.4571 23.0235 33.3843 23.0244Z" fill="black"/>
</svg>

<svg xmlns="http://www.w3.org/2000/svg" fill="none" viewBox="0 0 44 45"><path fill="#000" d="M43.6 24.2C46.2 13.6 35.3 2.9 25.4 1 20 0 14.4 1 9.7 4c-4 2.6-8 7.2-8.6 12.1v.3a21 21 0 0 0 7.2 23.4c6.9 5.1 18.1 6.9 25.4 1.6a.6.6 0 0 0-.6-1c-.3 0-.6.2-.8.3-.2-.2-.4-.4-.8-.2-4.8 2.3-11.5 1.1-16.3-.6-.5-.2-1 .7-.4 1a21.2 21.2 0 0 0 11.7 2c-1.8.4-3.7.6-5.7.5-4-.4-7.6-2-11-4.2a18 18 0 0 1-8-10.5 21.6 21.6 0 0 1 .3-12.3l.6-1.2a19 19 0 0 0-1 10c1 6.2 4.5 10.3 9.7 13.8.6.4 1.3-.7.6-1a19 19 0 0 1-9-13.2C2 19.2 4.2 14 7.5 9.4c.3-.3-.3-.8-.6-.5l-1.6 1.7C6.1 9.4 7 8.3 8 7.3c-.3.4.1 1 .6.7l3.6-2.3L15 4.3h.5c6.7-1.7 13.4-1 18.5 4 .3.2.5 0 .6-.1 0 .2.1.5.4.5.6 0 .6-.8 0-.8l-.3.1-.1-.3c-1.7-1.8-4-3.3-6.3-4.4A21 21 0 0 1 42 19.5c-.5-2.3-1.5-4.6-3-6.6-.3-.6-1-.1-.8.5 1.9 3.4 2.8 7.2 3 11.2a19 19 0 0 1-3.7 11c-.2.3.3.7.6.4 0 .1.3.1.4 0 3.1-3 5.4-7.4 5.1-11.8Z"/><path fill="#000" d="M23 10.6a.5.5 0 0 0-.5.6c0 3.8.3 6.5 1.9 8.2 1.5 1.8 4.3 2.5 9 2.6a.5.5 0 0 0 .5-.4v-.2A12 12 0 0 0 23 10.6Zm-2 0h-.1a12 12 0 0 0-10.8 11 .5.5 0 0 0 .5.4c4.7 0 7.4-.8 9-2.6 1.6-1.7 1.8-4.4 1.8-8.2a.5.5 0 0 0-.5-.6ZM10.5 23a.5.5 0 0 0-.5.6 12 12 0 0 0 11 10.7.5.5 0 0 0 .3-.5c0-3.8-.2-6.5-1.8-8.2-1.6-1.8-4.3-2.5-9-2.6Zm22.8 0c-4.7 0-7.5.8-9 2.5-1.6 1.8-1.8 4.5-1.9 8.3a.5.5 0 0 0 .6.6 12 12 0 0 0 10.8-11 .5.5 0 0 0-.5-.4Z"/></svg>
